X: 46
T:Rule Britannia. JC.045
M:C
L:1/8
Q:120
S:John Clare,Poet,Helpston. (1793-1864)
R:Air
O:England
A:Northamptonshire
N:
Z:vmp.P. Headford
K:D
A2|d2d2d/e/f/g/ ad|e2ef/g/f2zA|d/c/d/e/ f/e/f/g/ aefe|!
de/f/ ed{d}c2zA|cAec ag/f/ ed|c2~B2A2z2|d2dA BGzd|!
gfedA2ze|a2g2f/d/g/e/ a/f/e/d/|A2~e2d2z2|!
|:f3f ggzf|gfedA2z2|a2g2f/d/g/e/ a/f/e/d/|A2~e2d2:|]
W:Song text exists. See Deacon.|
